X: 18
T: Red Haired Lass (Key of A)
M: 4/4
L: 1/8
R: Reel
K: A
EAAG A2 cA|A2 cA BAFA|EAAG ABce|faec d2 cB|
EAAG A2 cA|A2 cA BAFA|EAAG ABce|faec d2 cd||
e2 ae feae|e2 ae cAcd|e2 ae fefg|afec d2 cd|
e2 ae feae|e2 ae cABc|d2 dBc3 B|ABce faec||
